rospo-icon-theme-classic-common/32x32/apps/etr.svg

<svg height="32" width="32" xmlns="http://www.w3.org/2000/svg"><path d="m30 17a14 14 0 0 1 -14 14 14 14 0 0 1 -14-14 14 14 0 0 1 14-14 14 14 0 0 1 14 14z" opacity=".2"/><path d="m24.538086 12.467672-2.704297 1.585937-1.270117.745117a1.40014 1.40014 0 0 1 -1.733594-.254296c-.996773-1.072052-3.285555-2.045313-5.980078-2.045313-1.992671 0-3.7776557.508189-4.9642579 1.230469-1.1866022.722281-1.6857422 1.537941-1.6857421 2.269531-.0000001.731591.4991399 1.547252 1.6857421 2.269532 1.1866022.722279 2.9715869 1.230468 4.9642579 1.230468 2.694523 0 4.983306-.973261 5.980078-2.045312a1.40014 1.40014 0 0 1 1.733594-.254297l1.270117.745117 2.704297 1.585938c-.02617-.06955-.02703-.05663-.05332-.128516-.371799-1.016578-.784766-2.191207-.784766-3.40293 0-1.211722.412945-2.386658.784766-3.402929.02631-.07191.02713-.05895.05332-.128516z" fill="#72a0d1"/><path d="m30 16a14 14 0 0 1 -14 14 14 14 0 0 1 -14-14 14 14 0 0 1 14-14 14 14 0 0 1 14 14z" fill="#d76337"/><path d="m26.198557 11.000466c-.168288.0053-.331753.05346-.477482.139144l-4.231435 2.582267-1.360681.798246c-1.480835-1.592674-4.283876-2.520123-7.504975-2.520123-4.7628942 0-8.6239841 2.100608-8.623984 4.999759-.0000001 2.899153 3.8610898 5.000241 8.623984 5.000241 3.221099 0 6.024139-.928449 7.504975-2.521123l1.360681.798246 4.231435 2.582786c.678547.397823 1.325981-.0989 1.325925-.894914 0 0-1.047-3.236449-1.047-4.965236 0-1.728785 1.047-4.96377 1.047-4.96377.000382-.583469-.274466-1.052876-.848443-1.035523z" opacity=".2"/><path d="m26.199219 10c-.168288.0053-.332787.05299-.478516.138672l-4.230469 2.583984-1.361328.796875c-1.480835-1.592674-4.28476-2.519531-7.505859-2.519531-4.7628944 0-8.6230471 2.100849-8.623047 5-.0000001 2.899153 3.8601526 5 8.623047 5 3.221099 0 6.025023-.92881 7.505859-2.521484l1.361328.798828 4.230469 2.582031c.678547.397823 1.326228-.09852 1.326172-.894531 0 0-1.046875-3.236057-1.046875-4.964844 0-1.728785 1.046875-4.964844 1.046875-4.964844.000382-.583469-.273679-1.0525092-.847656-1.035156z" fill="#142f56"/><path d="m12.623047 13c-2.087423 0-3.9421033.486553-5.1093751 1.150391-1.1672719.663837-1.5136719 1.2879-1.5136719 1.849609 0 .56171.34834 1.183721 1.515625 1.847656s3.020066 1.152344 5.107422 1.152344c2.836779 0 5.153253-.927998 6.041015-1.882812a2.0002 2.0002 0 0 1 2.476563-.363282l1.361328.798828a2.0002 2.0002 0 0 1  .029297.017578l1.910156 1.166016c-.205572-.880498-.441406-1.779119-.441406-2.736328s.235817-1.856036.441406-2.736328l-1.910156 1.166016a2.0002 2.0002 0 0 1 -.029297.017578l-1.361328.798828a2.0002 2.0002 0 0 1 -2.476563-.363282c-.88748-.954506-3.203822-1.882812-6.041015-1.882812zm-7.1503908.144531c-.155388.132671-.2985893.269653-.4316406.41211.1327366-.142064.2766889-.279781.4316406-.41211z" fill="#8dc6ff"/><path d="m16 2a14 14 0 0 0 -14 14 14 14 0 0 0  .0214844.585938 14 14 0 0 1 13.9785156-13.585938 14 14 0 0 1 13.978516 13.414062 14 14 0 0 0  .021484-.414062 14 14 0 0 0 -14-14z" fill="#fff" opacity=".2"/></svg>

<svg xmlns="http://www.w3.org/2000/svg" width="32" height="32" version="1">
 <path style="opacity:0.2" d="M 30,17 A 14,14 0 0 1 16,31 14,14 0 0 1 2,17 14,14 0 0 1 16,3 14,14 0 0 1 30,17 Z"/>
 <path style="fill:#72a0d1;stroke:#000000;stroke-width:0;stroke-linecap:round;stroke-linejoin:round" d="m 24.538086,12.467672 -2.704297,1.585937 -1.270117,0.745117 A 1.40014,1.40014 0 0 1 18.830078,14.54443 C 17.833305,13.472378 15.544523,12.499117 12.85,12.499117 c -1.992671,0 -3.7776557,0.508189 -4.9642579,1.230469 C 6.6991399,14.451867 6.1999999,15.267527 6.2,15.999117 c -1e-7,0.731591 0.4991399,1.547252 1.6857421,2.269532 1.1866022,0.722279 2.9715869,1.230468 4.9642579,1.230468 2.694523,0 4.983306,-0.973261 5.980078,-2.045312 a 1.40014,1.40014 0 0 1 1.733594,-0.254297 l 1.270117,0.745117 2.704297,1.585938 c -0.02617,-0.06955 -0.02703,-0.05663 -0.05332,-0.128516 C 24.112967,18.385469 23.7,17.21084 23.7,15.999117 c 0,-1.211722 0.412945,-2.386658 0.784766,-3.402929 0.02631,-0.07191 0.02713,-0.05895 0.05332,-0.128516 z"/>
 <path d="M 30,16 A 14,14 0 0 1 16,30 14,14 0 0 1 2,16 14,14 0 0 1 16,2 14,14 0 0 1 30,16 Z" style="fill:#d76337"/>
 <path d="m 26.198557,11.000466 c -0.168288,0.0053 -0.331753,0.05346 -0.477482,0.139144 l -4.231435,2.582267 -1.360681,0.798246 C 18.648124,12.927449 15.845083,12 12.623984,12 7.8610898,12 3.9999999,14.100608 4,16.999759 3.9999999,19.898912 7.8610898,22 12.623984,22 c 3.221099,0 6.024139,-0.928449 7.504975,-2.521123 l 1.360681,0.798246 4.231435,2.582786 c 0.678547,0.397823 1.325981,-0.0989 1.325925,-0.894914 0,0 -1.047,-3.236449 -1.047,-4.965236 0,-1.728785 1.047,-4.96377 1.047,-4.96377 3.82e-4,-0.583469 -0.274466,-1.052876 -0.848443,-1.035523 z" style="opacity:0.2"/>
 <path style="fill:#142f56" d="M 26.199219 10 C 26.030931 10.0053 25.866432 10.05299 25.720703 10.138672 L 21.490234 12.722656 L 20.128906 13.519531 C 18.648071 11.926857 15.844146 11 12.623047 11 C 7.8601526 11 3.9999999 13.100849 4 16 C 3.9999999 18.899153 7.8601526 21 12.623047 21 C 15.844146 21 18.64807 20.07119 20.128906 18.478516 L 21.490234 19.277344 L 25.720703 21.859375 C 26.39925 22.257198 27.046931 21.760855 27.046875 20.964844 C 27.046875 20.964844 26 17.728787 26 16 C 26 14.271215 27.046875 11.035156 27.046875 11.035156 C 27.047257 10.451687 26.773196 9.9826468 26.199219 10 z"/>
 <path style="fill:#8dc6ff" d="M 12.623047 13 C 10.535624 13 8.6809437 13.486553 7.5136719 14.150391 C 6.3464 14.814228 6 15.438291 6 16 C 6 16.56171 6.34834 17.183721 7.515625 17.847656 C 8.68291 18.511591 10.535691 19 12.623047 19 C 15.459826 19 17.7763 18.072002 18.664062 17.117188 A 2.0002 2.0002 0 0 1 21.140625 16.753906 L 22.501953 17.552734 A 2.0002 2.0002 0 0 1 22.53125 17.570312 L 24.441406 18.736328 C 24.235834 17.85583 24 16.957209 24 16 C 24 15.042791 24.235817 14.143964 24.441406 13.263672 L 22.53125 14.429688 A 2.0002 2.0002 0 0 1 22.501953 14.447266 L 21.140625 15.246094 A 2.0002 2.0002 0 0 1 18.664062 14.882812 C 17.776582 13.928306 15.46024 13 12.623047 13 z M 5.4726562 13.144531 C 5.3172682 13.277202 5.1740669 13.414184 5.0410156 13.556641 C 5.1737522 13.414577 5.3177045 13.27686 5.4726562 13.144531 z"/>
 <path style="fill:#ffffff;opacity:0.2" d="M 16 2 A 14 14 0 0 0 2 16 A 14 14 0 0 0 2.0214844 16.585938 A 14 14 0 0 1 16 3 A 14 14 0 0 1 29.978516 16.414062 A 14 14 0 0 0 30 16 A 14 14 0 0 0 16 2 z"/>
</svg>
